X: 424
T: Bir Çift Durna Gördüm
C: İbrahim Bakır
O: Turkey
F: http://compmusic.upf.edu/node/140
N: beyati--turku--devrihindi--bir_cift--yozgat
N: makam= beyati
N: form= turku
N: usul= devrihindi = 7/4
M: 7/4
L: 1/16
K: C _2/4B   
Q: 1/4=90
%%MIDI tuningsystem comma53
d2g4^3/4f2 g2^f2 g2^3/4f2 f2g2 g2d6  | \
w:  Bir  çift  dur *  *  na  *  gör *  düm   | 
e2d4de dec4c2 d4 e4 d2e2  | 
w:  du rur  dal *  *  *  *  *  lar da    | 
d2d4c2 c2c2 c2B2 B2A2 c4 cdc2  | B4 B2A2 A8 A4 A8  | \
w:  Se ver sen  *  *  Mev *  lâ *  yı   |  kal ma  yol *  lar da    | 
A4 A2A2 A2A2 A4 A4 A4 A4  | 
w:   | 
d2g4^3/4f2 g2f2 g4 f3a gfe4d2  | edd6 e2(3dcd c2c2 d3c e4 d2e2  | 
w:  Si zi  bek *  *  le yen  *  var   |  bi *  zim_ el *  *  *  *  *  ler *  de    | 
d2d4d2 c4 c2B2 B2A2 c4 cdB2  | B2B4A2 A8 A4 A8  | \
w:  Bi zim_ el *  le  *  doğ *  ru   |  gi din  dur *  na lar    | 
A4 A2A2 A2A2 A4 A12  | 
w:   | 
d2g4^3/4f2 g2f2 g4 f3a gfe4d2  | edd6 e2(3dcd c2c2 d3c e4 d2e2  | 
w:  Si zi  bek *  *  le yen  *  var   |  bi *  zim_ el *  *  *  *  *  ler *  de    | 
d2d4d2 c4 c2B2 B2A2 c4 cdB2  | B2B4A2 A8 A4 A8  | \
w:  Bi zim_ el *  le  *  doğ *  ru   |  gi din  dur *  na lar    | 
A4 A2A2 A2A2 A4 A12  | 
w:   | 
d2g4^3/4f2 g2^f2 g2^3/4f2 f2g2 g2d6  | \
w:  Bir  çift  dur *  *  na  *  gör *  düm   | 
e2d4de dec4c2 d4 e4 d2e2  | 
w:  du rur  dal *  *  *  *  *  lar da    | 
d2d4c2 c2c2 c2B2 B2A2 c4 cdc2  | B4 B2A2 A8 A4 A8  | \
w:  Se ver sen  *  *  Mev *  lâ *  yı   |  kal ma  yol *  lar da    | 
A4 A2A2 A2A2 A4 A4 A4 A4  | 
w:   | 
d2g4^3/4f2 g2f2 g4 f3a gfe4d2  | edd6 e2(3dcd c2c2 d3c e4 d2e2  | 
w:  Si zi  bek *  *  le yen  *  var   |  bi *  zim_ el *  *  *  *  *  ler *  de    | 
d2d4d2 c4 c2B2 B2A2 c4 cdB2  | B2B4A2 A8 A4 A8  | \
w:  Bi zim_ el *  le  *  doğ *  ru   |  gi din  dur *  na lar    | 
A4 A2A2 A2A2 A4 A12  | 
w:   | 
d2g4^3/4f2 g2f2 g4 f3a gfe4d2  | edd6 e2(3dcd c2c2 d3c e4 d2e2  | 
w:  Si zi  bek *  *  le yen  *  var   |  bi *  zim_ el *  *  *  *  *  ler *  de    | 
d2d4d2 c4 c2B2 B2A2 c4 cdB2  | B2B4A2 A8 A4 A8  | \
w:  Bi zim_ el *  le  *  doğ *  ru   |  gi din  dur *  na lar    | 
A4 A2A2 A2A2 A4 A12  | 
w:   | 
|


